X: 595
T: Pat Tuohy's reel
C: anon.
O: Ireland
B: Francis O'Neill: "The Dance Music of Ireland" (1907) no. 595
R: Reel
Z: Transcribed by Frank Nordberg - http://www.musicaviva.com
F: http://www.musicaviva.com/abc/tunes/ireland/oneill-1001/oneill-1001-059
5.abc
M: C|
L: 1/8
K: Em
B>(E ({F}(3E)DE) BAFE|D2 (FD) ADFD|B>(E ({F}(3E)DE) BAFA|[1 (3Bcd eg fde=
c: |[2 (3Bcd eg fee2||e2 (ge) Bege|
defg agfg|e2(ge) Bege|defa gee2|e2 (ge) Bege|defg a2ga|(3bag (af) gefe|(3
cde fa gee2|]
W:
W:
W: From Musica Viva - http://www.musicaviva.com
W: the Internet center for free sheet music downloads.


